brandFactory_export/1.Light/Renovar equipo_Cambiar movil_1Light.svg

<?xml version="1.0" encoding="UTF-8"?>
<svg width="24px" height="24px" viewBox="0 0 24 24" version="1.1" xmlns="http://www.w3.org/2000/svg" xmlns:xlink="http://www.w3.org/1999/xlink">
    <title>1.Light/Renovar equipo_Cambiar movil_1Light</title>
    <g id="Symbols" stroke="none" stroke-width="1" fill="none" fill-rule="evenodd">
        <g id="1.Light/Renovar-equipo_Cambiar-movil_1Light" fill="#5CB615" fill-rule="nonzero">
            <path d="M20.2857143,1 C21.3378151,1 22.1579832,1.2789916 22.7260504,1.82352941 C23.3142857,2.39159664 23.6134454,3.23529412 23.6134454,4.32773109 L23.6134454,18.7378151 C23.6134454,19.8302521 23.3142857,20.6739496 22.7260504,21.2420168 C22.1579832,21.789916 21.3378151,22.0689076 20.2857143,22.0689076 L12.5243697,22.0689076 C11.4722689,22.0689076 10.6521008,21.789916 10.0840336,21.2453782 C9.49579832,20.6773109 9.19663866,19.8336134 9.19663866,18.7411765 L9.19663866,4.32773109 C9.19663866,3.23529412 9.49579832,2.39159664 10.0840336,1.82352941 C10.6554622,1.2789916 11.4756303,1 12.5243697,1 L20.2857143,1 Z M6.0302521,10.8756303 C6.60504202,10.8756303 7.05882353,11.0302521 7.37478992,11.3394958 C7.70756303,11.6588235 7.87226891,12.1226891 7.87226891,12.7210084 L7.87226891,20.189916 C7.87226891,20.7882353 7.70420168,21.2521008 7.37478992,21.5714286 C7.06218487,21.8773109 6.60840336,22.0352941 6.03361345,22.0352941 L1.85210084,22.0352941 C1.27731092,22.0352941 0.823529412,21.8806723 0.507563026,21.5714286 C0.174789916,21.2521008 0.00672268943,20.7882353 0.00672268943,20.189916 L0.00672268943,12.7210084 C0.00672268943,12.1226891 0.174789916,11.6588235 0.504201681,11.3394958 C0.823529412,11.0336134 1.27394958,10.8756303 1.8487395,10.8756303 L6.0302521,10.8756303 Z M20.2857143,1.67226891 L12.5243697,1.67226891 C10.7394958,1.67226891 9.86890756,2.5394958 9.86890756,4.32773109 L9.86890756,18.7378151 C9.86890756,20.5260504 10.7361345,21.3932773 12.5243697,21.3932773 L20.2857143,21.3932773 C22.0739496,21.3932773 22.9411765,20.5260504 22.9411765,18.7378151 L22.9411765,4.32773109 C22.9411765,2.5394958 22.0739496,1.67226891 20.2857143,1.67226891 Z M6.03361345,11.5478992 L1.85210084,11.5478992 C1.04201681,11.5478992 0.678991597,11.9109244 0.678991597,12.7210084 L0.678991597,20.189916 C0.678991597,21 1.04201681,21.3630252 1.85210084,21.3630252 L6.03361345,21.3630252 C6.84369748,21.3630252 7.20672269,21 7.20672269,20.189916 L7.20672269,12.7210084 C7.20672269,11.9109244 6.84369748,11.5478992 6.03361345,11.5478992 Z M3.80840336,19.9142857 C4.02689076,19.9142857 4.16806723,20.0285714 4.16806723,20.2705882 C4.16806723,20.3882353 4.14117647,20.4689076 4.07731092,20.5327731 C4.01344538,20.5966387 3.92268908,20.6268908 3.80840336,20.6268908 C3.69411765,20.6268908 3.59663866,20.589916 3.5394958,20.5327731 C3.48235294,20.4756303 3.4487395,20.3882353 3.4487395,20.2705882 C3.4487395,20.0285714 3.58991597,19.9142857 3.80840336,19.9142857 Z M16.4067227,18.4655462 C16.7697479,18.4655462 17.005042,18.6537815 17.005042,19.0605042 C17.005042,19.2554622 16.9512605,19.4 16.8537815,19.497479 C16.7495798,19.605042 16.594958,19.6554622 16.4067227,19.6554622 C16.2184874,19.6554622 16.0638655,19.605042 15.9596639,19.497479 C15.8621849,19.4 15.8084034,19.2554622 15.8084034,19.0605042 C15.8084034,18.6537815 16.0436975,18.4655462 16.4067227,18.4655462 Z M6.47394958,3.30588235 C6.50756303,3.33613445 7.30756303,4.01512605 7.6,4.30756303 C7.98655462,4.69411765 7.98991597,5.13781513 7.60672269,5.51764706 C7.45882353,5.66554622 6.57478992,6.42521008 6.47394958,6.5092437 C6.41680672,6.56302521 6.3394958,6.58991597 6.25546219,6.58991597 C6.07058824,6.58991597 5.91932773,6.43865546 5.91932773,6.25378151 C5.91932773,6.15630252 5.96302521,6.06218487 6.03697479,5.99831933 C6.29545409,5.77805002 6.65312769,5.469107 6.89090981,5.2584167 L6.31596639,5.25882353 C4.53109244,5.25882353 3.6605042,6.12941176 3.6605042,7.91428571 L3.6605042,9.22857143 C3.6605042,9.41680672 3.51260504,9.56806723 3.32436975,9.56806723 C3.1394958,9.56806723 2.98823529,9.41680672 2.98823529,9.23193277 L2.98823529,7.91428571 C2.98823529,6.82184874 3.28739496,5.97815126 3.87563025,5.41008403 C4.44369748,4.86218487 5.26386555,4.58655462 6.31596639,4.58655462 L6.91743709,4.58754973 C6.57212395,4.2717711 6.04513005,3.82224356 6.03697479,3.81680672 C5.89579832,3.69579832 5.8789916,3.48403361 6,3.34285714 C6.1210084,3.20168067 6.33277311,3.18487395 6.47394958,3.30588235 Z" id="Renovar-equipo_Cambiar-movil_1Light"></path>
        </g>
    </g>
</svg>

<svg width="24" height="24" viewBox="0 0 24 24" xmlns="http://www.w3.org/2000/svg"><path d="M20.286 1c1.052 0 1.872.279 2.44.824.588.568.887 1.411.887 2.504v14.41c0 1.092-.299 1.936-.887 2.504-.568.548-1.388.827-2.44.827h-7.762c-1.052 0-1.872-.28-2.44-.824-.588-.568-.887-1.411-.887-2.504V4.328c0-1.093.299-1.936.887-2.504.571-.545 1.392-.824 2.44-.824h7.762zM6.03 10.876c.575 0 1.029.154 1.345.463.333.32.497.784.497 1.382v7.469c0 .598-.168 1.062-.497 1.381-.313.306-.767.464-1.341.464H1.852c-.575 0-1.028-.154-1.344-.464-.333-.319-.501-.783-.501-1.381V12.72c0-.598.168-1.062.497-1.382.32-.305.77-.463 1.345-.463H6.03zm14.256-9.204h-7.762c-1.785 0-2.655.867-2.655 2.656v14.41c0 1.788.867 2.655 2.655 2.655h7.762c1.788 0 2.655-.867 2.655-2.655V4.328c0-1.789-.867-2.656-2.655-2.656zM6.034 11.548H1.852c-.81 0-1.173.363-1.173 1.173v7.469c0 .81.363 1.173 1.173 1.173h4.182c.81 0 1.173-.363 1.173-1.173V12.72c0-.81-.363-1.173-1.173-1.173zm-2.226 8.366c.219 0 .36.115.36.357 0 .117-.027.198-.09.262-.065.064-.155.094-.27.094a.382.382 0 01-.269-.094c-.057-.057-.09-.145-.09-.262 0-.242.14-.357.36-.357zm12.599-1.448c.363 0 .598.188.598.595 0 .194-.054.339-.151.436-.104.108-.259.158-.447.158-.189 0-.343-.05-.447-.158-.098-.097-.152-.242-.152-.436 0-.407.236-.595.599-.595zM6.474 3.306c.034.03.834.71 1.126 1.002.387.386.39.83.007 1.21-.148.148-1.032.907-1.133.991A.337.337 0 016.037 6c.258-.22.616-.53.854-.74h-.575c-1.785 0-2.655.87-2.655 2.655V9.23a.336.336 0 11-.673.003V7.914c0-1.092.3-1.936.888-2.504.568-.548 1.388-.823 2.44-.823h.601a36.472 36.472 0 00-.88-.77.336.336 0 11.437-.511z" fill="#5CB615" fill-rule="nonzero"/></svg>
